shader_type canvas_item;

uniform vec2 light_position;


void vertex() {
	// Called for every vertex the material is visible on.
}

void fragment() {
	// Called for every pixel the material is visible on.
}

void light() {
	// Called for every pixel for every light affecting the CanvasItem.
}
